X: 9504
T: Dark Island, The
R: waltz
M: 3/4
K: Gmajor
L: 1/16
M:6/8
|:EG|A4B>A G4AG|E3DCE D4GA|B3AG2 Bd3D2|Bd3B2 A4EG|
A4B>A G4AG|E3DCE D4GA|B3DdB A3DBA|1 G3G/A/G>F G4:|2 G3G/A/G>F G3ABc||
|:d3DD2 B4AG|E3DCE D4GA|B3AG2 Bd3D2|Bd3B2 A4EG|
A4B>A G4AG|E3DCE D4GA|B3DdB A3DBA|1 G3G/A/G>F G3ABc:|2 G3G/A/G>F G4||

